public/img/facebook.svg

<svg height="24" viewBox="0 0 24 24" width="24" xmlns="http://www.w3.org/2000/svg"><path d="m23 12.07a11 11 0 1 0 -12.72 10.86v-7.68h-2.79v-3.18h2.79v-2.43c0-2.75 1.64-4.28 4.16-4.28a16.54 16.54 0 0 1 2.46.22v2.71h-1.39a1.58 1.58 0 0 0 -1.79 1.71v2.07h3l-.49 3.18h-2.51v7.68a11 11 0 0 0 9.28-10.86z" fill="#1876f2"/></svg>

<svg id="bdd634c1-5e74-40e8-badc-63e7081c530f" data-name="Layer 1" xmlns="http://www.w3.org/2000/svg" width="24" height="24" viewBox="0 0 24 24">
  <defs>
    <style>
      .aea0bf0e-56c6-468f-9ac4-e2bc4e90d7a3 {
        fill: #1876f2;
      }
    </style>
  </defs>
  <path class="aea0bf0e-56c6-468f-9ac4-e2bc4e90d7a3" d="M23,12.07A11,11,0,1,0,10.28,22.93V15.25H7.49V12.07h2.79V9.64c0-2.75,1.64-4.28,4.16-4.28a16.54,16.54,0,0,1,2.46.22V8.29H15.51A1.58,1.58,0,0,0,13.72,10v2.07h3l-.49,3.18H13.72v7.68A11,11,0,0,0,23,12.07Z"/>
</svg>
